X:39
T:Musical Priest, The
R:Reel
Z:O'Neill's
M:C|
K:D
BA |\
FB {d}BA ~B3d | cBAf ecBA | FB {d}BA BcdB | cBAc B2 :| Bc |:\
d2 {e}dc dfed | (3cBA eA fA eA |[1 d2 {e}dc defb | afed dB {d}(3BAB :|
[2 dcBc defb | afec B2 Bc \
|: dB {d}(3BAB bafb | afec ABce |[1 dB (3BBB bafb | afec B2 Bc :|\
[2 dcBc defb | afec (3dcB cA |]
